X:045
L:1/8
M:C
K:D
ag | fdBc d2 fd | d2 fd ce A2 | gdBc d2 fa | d'2 c'd' b2 ag |
fdBc d2 gd | d2 fd ce A2 | fdBc defa | bd'c'd' b2 ::
"8va"Bc | dcde fded | ceed cA A2 | BABc d2 cB | AFEG FB, B, z |

